// ====================
// Notoligotoma
// Amplitude peak detection synth
// ====================

// amplitude follower
// detects hits from contact mics
// sends trigger to language (OSC) to activate sound function

Synth("amplitudeAnalysis");

"amplitudeAnalysis synth is now running".postln;

